X: 1
T: Orvetta Waltz #2
C: Vesta Johnson? (1930s)
R: waltz
Z: 2009 John Chambers <jc:trillian.mit.edu>
M: 3/4
L: 1/8
K: G
|: "G"B,C DE DB, | "C"CD EG EC | "G"B,C D2 G2 | B4 B2 \
|  "D7"D3 EFG | A2 AB A2 | "G"G,2 B,2 D2 |1 G4 G2 :|2 G4 Bc ||
|: "G"d3 G BA | "G7"G3 D ED | "C"C2 ED ED | C2 E2 AB \
| "Am"c3 B AG | "D7"F3 E FE |1 D2 E2 D2 | "G"G,2 B,2 D2 :|2 "D7"D2 E2 F2 | "G"G6 |]
